**kern	**kern	**kern	**kern
*staff3	*staff4	*staff1	*staff2
*clefF4	*clefF4	*clefG2	*clefG2
*k[f#c#]	*k[f#c#]	*k[f#c#]	*k[f#c#]
*M2/4	*M2/4	*M2/4	*M2/4
*D:	*D:	*D:	*D:
=-	=-	=-	=-
*M2/4	*M2/4	*M2/4	*M2/4
[2D	8AL	(8ggL	2r
.	8dJ	8ff#'J)	.
.	8GL	(8ff#L	.
.	8dJ	8ee'J)	.
=436	=436	=436	=436
4D]	8F#L	(8eeL	2r
.	8dJ	8dd'J)	.
4r	8AL	(8ddL	.
.	8dJ	8cc#'J)	.
=437	=437	=437	=437
2r	8GL	(8cc#L	2r
.	8dJ	8b'J)	.
.	8EL	(8bL	.
.	8dJ	8dd'J)	.
=438	=438	=438	=438
2r	8F#L	(8ddL	2r
.	8dJ	8a'J)	.
.	8DL	(8aL	.
.	8AJ	8f#'J)	.
=439	=439	=439	=439
2r	8EL	(8f#L	2r
.	8AJ	8g'J)	.
.	8C#L	(8gL	.
.	8AJ	8ee'J)	.
=440	=440	=440	=440
2r	8DL	(8eeL	2r
.	8AJ	8f#'J)	.
.	8AAL	(8f#L	.
.	8AJ	8dd'J)	.
=441	=441	=441	=441
2r	8GGL	(8ddL	2r
.	8AJ	8e'J)	.
.	8AAL	(8eL	.
.	8AJ	8cc#'J)	.
=442	=442	=442	=442
2r	4D	4f# 4dd	2r
.	4DD	4r	.
=443:|!|:	=443:|!|:	=443:|!|:	=443:|!|:
*-	*-	*-	*-
